static/assets/img/icons/theme/tools/compass.svg

<svg height="24" viewBox="0 0 24 24" width="24" xmlns="http://www.w3.org/2000/svg"><g fill="none" fill-rule="evenodd"><path d="m0 0h24v24h-24z" opacity="0"/><g fill="#000"><path d="m7.07744993 12.3040451c.64699578.7675643 1.46299572 1.3880023 2.39063601 1.8039502l-4.46808594 8.8920047-.5-5zm7.50910117 1.9557413c.945405-.3578848 1.7888649-.9231743 2.4748515-1.6403405l2.4385974 5.3805541-.5 5zm-2.5865511-14.2597864c.8284271 0 1.5.67157288 1.5 1.5v2.5h-3v-2.5c0-.82842712.6715729-1.5 1.5-1.5z" opacity=".3"/><path d="m12 10c1.1045695 0 2-.8954305 2-2s-.8954305-2-2-2-2 .8954305-2 2 .8954305 2 2 2zm0 3c-2.76142375 0-5-2.2385763-5-5 0-2.76142375 2.23857625-5 5-5 2.7614237 0 5 2.23857625 5 5 0 2.7614237-2.2385763 5-5 5z" fill-rule="nonzero"/></g></g></svg>

<svg width="24px" height="24px" viewBox="0 0 24 24" version="1.1" xmlns="http://www.w3.org/2000/svg" xmlns:xlink="http://www.w3.org/1999/xlink">
    <title>Icon For Compass</title>
    <g stroke="none" stroke-width="1" fill="none" fill-rule="evenodd">
        <rect opacity="0" x="0" y="0" width="24" height="24"></rect>
        <path d="M7.07744993,12.3040451 C7.72444571,13.0716094 8.54044565,13.6920474 9.46808594,14.1079953 L5,23 L4.5,18 L7.07744993,12.3040451 Z M14.5865511,14.2597864 C15.5319561,13.9019016 16.375416,13.3366121 17.0614026,12.6194459 L19.5,18 L19,23 L14.5865511,14.2597864 Z M12,3.55271368e-14 C12.8284271,3.53749572e-14 13.5,0.671572875 13.5,1.5 L13.5,4 L10.5,4 L10.5,1.5 C10.5,0.671572875 11.1715729,3.56793164e-14 12,3.55271368e-14 Z" fill="#000000" opacity="0.3"></path>
        <path d="M12,10 C13.1045695,10 14,9.1045695 14,8 C14,6.8954305 13.1045695,6 12,6 C10.8954305,6 10,6.8954305 10,8 C10,9.1045695 10.8954305,10 12,10 Z M12,13 C9.23857625,13 7,10.7614237 7,8 C7,5.23857625 9.23857625,3 12,3 C14.7614237,3 17,5.23857625 17,8 C17,10.7614237 14.7614237,13 12,13 Z" fill="#000000" fill-rule="nonzero"></path>
    </g>
</svg>
